static/cards/FrenchDeck/cyberwave/card_diamonds_10.svg

<svg xmlns="http://www.w3.org/2000/svg" width="822" height="1122" fill="none" viewBox="0 0 822 1122"><rect width="822" height="1122" fill="#1a0033" rx="20"/><g fill="#b366ff" clip-path="url(#a)"><path d="M56.577 159q-1.536 0-2.304-.512-.64-.64-.64-2.048v-.896q-.001-2.816 2.944-2.816h15.615v-72.32l-14.847 8.96q-1.152.768-2.048.768-1.024 0-1.792-1.408l-.513-.768q-.51-.896-.511-1.664 0-1.408 1.535-2.304L72.96 72.6q1.025-.64 2.433-.64h.767q2.945 0 2.945 2.944v77.824H94.72q2.945 0 2.945 2.816v.896q0 1.408-.769 2.048-.639.512-2.175.512zm92.843 1.92q-19.713 0-29.952-11.776-10.24-11.904-10.24-33.664t10.24-33.536Q129.707 70.04 149.42 70.04q19.712 0 29.952 11.904 10.24 11.775 10.24 33.536 0 21.76-10.24 33.664-10.24 11.776-29.952 11.776m20.48-79.232q-7.937-5.76-20.48-5.76-16.512 0-25.088 10.112-8.448 9.984-8.448 29.44 0 19.968 8.832 29.952zm-20.48 73.344q16.512 0 24.96-9.984 8.576-10.112 8.576-29.568 0-19.2-8.449-29.44l-45.055 63.616q7.68 5.376 19.968 5.376M112.679 208.481c3.959-5.938 12.683-5.938 16.642 0l21.981 32.972a10 10 0 0 1 0 11.094l-21.981 32.972c-3.959 5.938-12.683 5.938-16.642 0l-21.981-32.972a10 10 0 0 1 0-11.094zM757.423 959q1.536 0 2.304.512.64.64.64 2.048v.896q0 2.816-2.944 2.816h-15.616v72.318l14.848-8.96c.768-.51 1.451-.77 2.048-.77q1.024 0 1.792 1.41l.512.77c.342.6.512 1.15.512 1.66q0 1.41-1.536 2.31l-18.944 11.39c-.682.43-1.493.64-2.432.64h-.768q-2.943 0-2.943-2.94v-77.828h-15.617q-2.943 0-2.944-2.816v-.896q0-1.408.768-2.048.64-.512 2.176-.512zm-92.843-1.92q19.713 0 29.952 11.776 10.24 11.904 10.24 33.664 0 21.765-10.24 33.54c-6.826 7.93-16.81 11.9-29.952 11.9-13.141 0-23.125-3.97-29.952-11.9q-10.24-11.775-10.24-33.54 0-21.76 10.24-33.664 10.24-11.776 29.952-11.776m-20.48 79.23q7.937 5.76 20.48 5.76 16.512 0 25.088-10.11c5.632-6.66 8.448-16.47 8.448-29.44q0-19.968-8.832-29.952zm20.48-73.342q-16.512 0-24.96 9.984-8.576 10.111-8.576 29.568c0 12.8 2.816 22.61 8.449 29.44l45.055-63.616q-7.68-5.376-19.968-5.376M701.321 909.519c-3.959 5.938-12.683 5.938-16.642 0l-21.981-32.972a10 10 0 0 1 0-11.094l21.981-32.972c3.959-5.938 12.683-5.938 16.642 0l21.981 32.972a10 10 0 0 1 0 11.094z"/></g><path stroke="#b366ff" stroke-width="8" d="M406.008 443.699c2.375-3.562 7.609-3.562 9.984 0l21.982 32.973a6 6 0 0 1 0 6.656l-21.982 32.973c-2.375 3.562-7.609 3.562-9.984 0l-21.982-32.973a6 6 0 0 1 0-6.656zM238.008 605.699c2.375-3.562 7.609-3.562 9.984 0l21.982 32.973a6 6 0 0 1 0 6.656l-21.982 32.973c-2.375 3.562-7.609 3.562-9.984 0l-21.982-32.973a6 6 0 0 1 0-6.656zM402.008 605.699c2.375-3.562 7.609-3.562 9.984 0l21.982 32.973a6 6 0 0 1 0 6.656l-21.982 32.973c-2.375 3.562-7.609 3.562-9.984 0l-21.982-32.973a6 6 0 0 1 0-6.656zM406.008 767.699c2.375-3.562 7.609-3.562 9.984 0l21.982 32.973a6 6 0 0 1 0 6.656l-21.982 32.973c-2.375 3.562-7.609 3.562-9.984 0l-21.982-32.973a6 6 0 0 1 0-6.656zM574.008 605.699c2.375-3.562 7.609-3.562 9.984 0l21.982 32.973a6 6 0 0 1 0 6.656l-21.982 32.973c-2.375 3.562-7.609 3.562-9.984 0l-21.982-32.973a6 6 0 0 1 0-6.656zM574.008 443.699c2.375-3.562 7.609-3.562 9.984 0l21.982 32.973a6 6 0 0 1 0 6.656l-21.982 32.973c-2.375 3.562-7.609 3.562-9.984 0l-21.982-32.973a6 6 0 0 1 0-6.656zM238.008 443.699c2.375-3.562 7.609-3.562 9.984 0l21.982 32.973a6 6 0 0 1 0 6.656l-21.982 32.973c-2.375 3.562-7.609 3.562-9.984 0l-21.982-32.973a6 6 0 0 1 0-6.656zM574.008 281.699c2.375-3.562 7.609-3.562 9.984 0l21.982 32.973a6 6 0 0 1 0 6.656l-21.982 32.973c-2.375 3.562-7.609 3.562-9.984 0l-21.982-32.973a6 6 0 0 1 0-6.656zM238.008 281.699c2.375-3.562 7.609-3.562 9.984 0l21.982 32.973a6 6 0 0 1 0 6.656l-21.982 32.973c-2.375 3.562-7.609 3.562-9.984 0l-21.982-32.973a6 6 0 0 1 0-6.656zM406.008 281.699c2.375-3.562 7.609-3.562 9.984 0l21.982 32.973a6 6 0 0 1 0 6.656l-21.982 32.973c-2.375 3.562-7.609 3.562-9.984 0l-21.982-32.973a6 6 0 0 1 0-6.656z"/><defs><clipPath id="a"><path fill="#fff" d="M46 48h722v1022H46z"/></clipPath></defs></svg>

<svg width="822" height="1122" viewBox="0 0 822 1122" fill="none" xmlns="http://www.w3.org/2000/svg">
<rect width="822" height="1122" rx="20" fill="#1A0033"/>
<g clip-path="url(#clip0_31_787)">
<path d="M56.5765 159C55.5525 159 54.7845 158.829 54.2725 158.488C53.8458 158.061 53.6325 157.379 53.6325 156.44V155.544C53.6325 153.667 54.6138 152.728 56.5765 152.728H72.1925V80.408L57.3445 89.368C56.5765 89.88 55.8938 90.136 55.2965 90.136C54.6138 90.136 54.0165 89.6667 53.5045 88.728L52.9925 87.96C52.6512 87.3627 52.4805 86.808 52.4805 86.296C52.4805 85.3573 52.9925 84.5893 54.0165 83.992L72.9605 72.6C73.6432 72.1733 74.4538 71.96 75.3925 71.96H76.1605C78.1232 71.96 79.1045 72.9413 79.1045 74.904V152.728H94.7205C96.6832 152.728 97.6645 153.667 97.6645 155.544V156.44C97.6645 157.379 97.4085 158.061 96.8965 158.488C96.4698 158.829 95.7445 159 94.7205 159H56.5765ZM149.42 160.92C136.278 160.92 126.294 156.995 119.468 149.144C112.641 141.208 109.228 129.987 109.228 115.48C109.228 100.973 112.641 89.7947 119.468 81.944C126.294 74.008 136.278 70.04 149.42 70.04C162.561 70.04 172.545 74.008 179.372 81.944C186.198 89.7947 189.612 100.973 189.612 115.48C189.612 129.987 186.198 141.208 179.372 149.144C172.545 156.995 162.561 160.92 149.42 160.92ZM169.9 81.688C164.609 77.848 157.782 75.928 149.42 75.928C138.412 75.928 130.049 79.2987 124.332 86.04C118.7 92.696 115.884 102.509 115.884 115.48C115.884 128.792 118.828 138.776 124.716 145.432L169.9 81.688ZM149.42 155.032C160.428 155.032 168.748 151.704 174.38 145.048C180.097 138.307 182.956 128.451 182.956 115.48C182.956 102.68 180.14 92.8667 174.507 86.04L129.452 149.656C134.572 153.24 141.228 155.032 149.42 155.032Z" fill="#B366FF"/>
<path d="M112.679 208.481C116.638 202.543 125.362 202.543 129.321 208.481L151.302 241.453C153.541 244.812 153.541 249.188 151.302 252.547L129.321 285.519C125.362 291.457 116.638 291.457 112.679 285.519L90.698 252.547C88.4587 249.188 88.4587 244.812 90.698 241.453L112.679 208.481Z" fill="#B366FF"/>
<path d="M757.423 959C758.447 959 759.215 959.171 759.727 959.512C760.154 959.939 760.367 960.621 760.367 961.56V962.456C760.367 964.333 759.386 965.272 757.423 965.272H741.807V1037.59L756.655 1028.63C757.423 1028.12 758.106 1027.86 758.703 1027.86C759.386 1027.86 759.983 1028.33 760.495 1029.27L761.007 1030.04C761.349 1030.64 761.519 1031.19 761.519 1031.7C761.519 1032.64 761.007 1033.41 759.983 1034.01L741.039 1045.4C740.357 1045.83 739.546 1046.04 738.607 1046.04H737.839C735.877 1046.04 734.896 1045.06 734.896 1043.1V965.272H719.279C717.317 965.272 716.335 964.333 716.335 962.456V961.56C716.335 960.621 716.591 959.939 717.103 959.512C717.53 959.171 718.255 959 719.279 959H757.423ZM664.58 957.08C677.722 957.08 687.706 961.005 694.532 968.856C701.359 976.792 704.772 988.013 704.772 1002.52C704.772 1017.03 701.359 1028.21 694.532 1036.06C687.706 1043.99 677.722 1047.96 664.58 1047.96C651.439 1047.96 641.455 1043.99 634.628 1036.06C627.802 1028.21 624.388 1017.03 624.388 1002.52C624.388 988.013 627.802 976.792 634.628 968.856C641.455 961.005 651.439 957.08 664.58 957.08ZM644.1 1036.31C649.391 1040.15 656.218 1042.07 664.58 1042.07C675.588 1042.07 683.951 1038.7 689.668 1031.96C695.3 1025.3 698.116 1015.49 698.116 1002.52C698.116 989.208 695.172 979.224 689.284 972.568L644.1 1036.31ZM664.58 962.968C653.572 962.968 645.252 966.296 639.62 972.952C633.903 979.693 631.044 989.549 631.044 1002.52C631.044 1015.32 633.86 1025.13 639.493 1031.96L684.548 968.344C679.428 964.76 672.772 962.968 664.58 962.968Z" fill="#B366FF"/>
<path d="M701.321 909.519C697.362 915.457 688.638 915.457 684.679 909.519L662.698 876.547C660.459 873.188 660.459 868.812 662.698 865.453L684.679 832.481C688.638 826.543 697.362 826.543 701.321 832.481L723.302 865.453C725.541 868.812 725.541 873.188 723.302 876.547L701.321 909.519Z" fill="#B366FF"/>
</g>
<path d="M406.008 443.699C408.383 440.137 413.617 440.137 415.992 443.699L437.974 476.672C439.317 478.687 439.317 481.313 437.974 483.328L415.992 516.301C413.617 519.863 408.383 519.863 406.008 516.301L384.026 483.328C382.683 481.313 382.683 478.687 384.026 476.672L406.008 443.699Z" stroke="#B366FF" stroke-width="8"/>
<path d="M238.008 605.699C240.383 602.137 245.617 602.137 247.992 605.699L269.974 638.672C271.317 640.687 271.317 643.313 269.974 645.328L247.992 678.301C245.617 681.863 240.383 681.863 238.008 678.301L216.026 645.328C214.683 643.313 214.683 640.687 216.026 638.672L238.008 605.699Z" stroke="#B366FF" stroke-width="8"/>
<path d="M402.008 605.699C404.383 602.137 409.617 602.137 411.992 605.699L433.974 638.672C435.317 640.687 435.317 643.313 433.974 645.328L411.992 678.301C409.617 681.863 404.383 681.863 402.008 678.301L380.026 645.328C378.683 643.313 378.683 640.687 380.026 638.672L402.008 605.699Z" stroke="#B366FF" stroke-width="8"/>
<path d="M406.008 767.699C408.383 764.137 413.617 764.137 415.992 767.699L437.974 800.672C439.317 802.687 439.317 805.313 437.974 807.328L415.992 840.301C413.617 843.863 408.383 843.863 406.008 840.301L384.026 807.328C382.683 805.313 382.683 802.687 384.026 800.672L406.008 767.699Z" stroke="#B366FF" stroke-width="8"/>
<path d="M574.008 605.699C576.383 602.137 581.617 602.137 583.992 605.699L605.974 638.672C607.317 640.687 607.317 643.313 605.974 645.328L583.992 678.301C581.617 681.863 576.383 681.863 574.008 678.301L552.026 645.328C550.683 643.313 550.683 640.687 552.026 638.672L574.008 605.699Z" stroke="#B366FF" stroke-width="8"/>
<path d="M574.008 443.699C576.383 440.137 581.617 440.137 583.992 443.699L605.974 476.672C607.317 478.687 607.317 481.313 605.974 483.328L583.992 516.301C581.617 519.863 576.383 519.863 574.008 516.301L552.026 483.328C550.683 481.313 550.683 478.687 552.026 476.672L574.008 443.699Z" stroke="#B366FF" stroke-width="8"/>
<path d="M238.008 443.699C240.383 440.137 245.617 440.137 247.992 443.699L269.974 476.672C271.317 478.687 271.317 481.313 269.974 483.328L247.992 516.301C245.617 519.863 240.383 519.863 238.008 516.301L216.026 483.328C214.683 481.313 214.683 478.687 216.026 476.672L238.008 443.699Z" stroke="#B366FF" stroke-width="8"/>
<path d="M574.008 281.699C576.383 278.137 581.617 278.137 583.992 281.699L605.974 314.672C607.317 316.687 607.317 319.313 605.974 321.328L583.992 354.301C581.617 357.863 576.383 357.863 574.008 354.301L552.026 321.328C550.683 319.313 550.683 316.687 552.026 314.672L574.008 281.699Z" stroke="#B366FF" stroke-width="8"/>
<path d="M238.008 281.699C240.383 278.137 245.617 278.137 247.992 281.699L269.974 314.672C271.317 316.687 271.317 319.313 269.974 321.328L247.992 354.301C245.617 357.863 240.383 357.863 238.008 354.301L216.026 321.328C214.683 319.313 214.683 316.687 216.026 314.672L238.008 281.699Z" stroke="#B366FF" stroke-width="8"/>
<path d="M406.008 281.699C408.383 278.137 413.617 278.137 415.992 281.699L437.974 314.672C439.317 316.687 439.317 319.313 437.974 321.328L415.992 354.301C413.617 357.863 408.383 357.863 406.008 354.301L384.026 321.328C382.683 319.313 382.683 316.687 384.026 314.672L406.008 281.699Z" stroke="#B366FF" stroke-width="8"/>
<defs>
<clipPath id="clip0_31_787">
<rect width="722" height="1022" fill="white" transform="translate(46 48)"/>
</clipPath>
</defs>
</svg>
